X:211
T: HANSELEMANN HAT STEFELE AN
N: K3033
O: Europa, Mitteleuropa, Deutschland; Frankreich, Unter - Elsass
R: Kinder - Lied, Reiter - Spiel
M: 4/4
L: 1/8
K: G
 | B2BBB2G2 | F2FFF2
D2 | D3FB2A2 | A4G2z2 |
G2G2G2F2 | E2E2E2
D2 | D3FB2A2 | A4G2z2

